modules/hawcons-stroke/icons/icon-101-folder-search.svg

<?xml version="1.0" encoding="UTF-8" standalone="no"?>
<svg width="32px" height="32px" viewBox="0 0 32 32" version="1.1" xmlns="http://www.w3.org/2000/svg" xmlns:xlink="http://www.w3.org/1999/xlink" xmlns:sketch="http://www.bohemiancoding.com/sketch/ns">
    <!-- Generator: Sketch 3.0.3 (7891) - http://www.bohemiancoding.com/sketch -->
    <title>icon 101 folder search</title>
    <desc>Created with Sketch.</desc>
    <defs></defs>
    <g id="Page-1" stroke="none" stroke-width="1" fill="none" fill-rule="evenodd" sketch:type="MSPage">
        <g id="icon-101-folder-search" sketch:type="MSArtboardGroup" fill="#929292">
            <path d="M17.308843,20.0159497 C16.5390075,20.6317636 15.5625069,21 14.5,21 C12.0147185,21 10,18.9852815 10,16.5 C10,14.0147185 12.0147185,12 14.5,12 C16.9852815,12 19,14.0147185 19,16.5 C19,17.5625069 18.6317636,18.5390075 18.0159497,19.308843 L23.363961,24.6568542 L22.6568542,25.363961 L17.308843,20.0159497 L17.308843,20.0159497 Z M17,9 L15,5 L4.00276013,5 C2.89666625,5 2,5.88967395 2,6.991155 L2,25.008845 C2,26.1085295 2.89971268,27 3.99328744,27 L29.0067126,27 C30.1075748,27 31,26.1073772 31,25.0049107 L31,10.9950893 C31,9.8932319 30.1029399,9 28.9941413,9 L17,9 L17,9 Z M16.3599854,10 L14.4000244,6 L3.99173483,6 C3.44401481,6 3,6.45530558 3,6.99180311 L3,25.0081969 C3,25.5559546 3.44610862,26 3.99296544,26 L29.0070346,26 C29.5554342,26 30,25.5553691 30,24.9991283 L30,11.0008717 C30,10.4481055 29.5461723,10 28.9970172,10 L16.3599854,10 L16.3599854,10 Z M14.5,20 C16.4329967,20 18,18.4329967 18,16.5 C18,14.5670033 16.4329967,13 14.5,13 C12.5670033,13 11,14.5670033 11,16.5 C11,18.4329967 12.5670033,20 14.5,20 L14.5,20 Z" id="folder-search" sketch:type="MSShapeGroup"></path>
        </g>
    </g>
</svg>

<svg width="32" height="32" viewBox="0 0 32 32" xmlns="http://www.w3.org/2000/svg"><path d="M17.309 20.016a4.5 4.5 0 1 1 .707-.707l5.348 5.348-.707.707-5.348-5.348zM17 9l-2-4H4.003C2.897 5 2 5.89 2 6.991V25.01C2 26.109 2.9 27 3.993 27h25.014c1.1 0 1.993-.893 1.993-1.995v-14.01A2 2 0 0 0 28.994 9H17zm-.64 1L14.4 6H3.992A1 1 0 0 0 3 6.992v18.016c0 .548.446.992.993.992h25.014A.995.995 0 0 0 30 25V11c0-.552-.454-1-1.003-1H16.36zM14.5 20a3.5 3.5 0 1 0 0-7 3.5 3.5 0 0 0 0 7z" fill="#929292" fill-rule="evenodd"/></svg>
